file/wta.svg

<svg clip-rule="evenodd" fill-rule="evenodd" stroke-linejoin="round" stroke-miterlimit="1.41421" viewBox="0 0 560 400" xmlns="http://www.w3.org/2000/svg" xmlns:xlink="http://www.w3.org/1999/xlink"><linearGradient id="a" gradientUnits="userSpaceOnUse" x1="130.886" x2="317.12" y1="168.002" y2="168.002"><stop offset="0" stop-color="#e3056e"/><stop offset=".32" stop-color="#a91176"/><stop offset=".63" stop-color="#761b7c"/><stop offset=".87" stop-color="#572280"/><stop offset="1" stop-color="#4b2482"/></linearGradient><g transform="matrix(1.39633 0 0 1.39633 -32.7817 -34.585)"><path d="m134.09 202.38c13.41 34.65 64.44 47.43 114.12 28.44s79.02-62.46 65.7-97.11c-13.41-34.74-64.44-47.52-114.12-28.53-49.59 18.99-79.02 62.46-65.7 97.2z" fill="url(#a)" fill-rule="nonzero"/><ellipse cx="277.1" cy="183.93" fill="#fbeb14" rx="6.21" ry="6.39"/><path d="m300.14 180.51-.36-.63-17.19-30.24-.54-.9c-1.17-1.89-2.7-3.06-4.86-3.15-2.16.09-3.69 1.26-4.86 3.24l-.54.9-17.73 30.87c-.72 1.35-1.26 2.43-1.26 3.87 0 3.24 2.43 5.67 5.58 5.67 2.07 0 3.78-1.26 5.04-3.24l.45-.81 13.32-23.76 13.32 23.85.36.63c1.26 2.07 3.06 3.33 5.04 3.33 3.06 0 5.58-2.43 5.58-5.67 0-1.44-.63-2.61-1.35-3.96zm-39.06-29.25c0-3.24-2.34-5.4-5.49-5.49 0 0-.45-.09-1.08-.09h-43.74c-2.25 0-3.87 1.17-4.77 3.06l-9.81 21.96-9.27-20.79c-1.44-2.97-3.15-4.14-5.49-4.14-2.07 0-3.87.9-5.4 4.05l-9.36 20.97-8.82-19.8-.45-.81c-1.17-2.61-2.61-4.23-5.4-4.41-2.07-.09-3.96 1.08-4.95 2.79-.45.9-1.17 2.61 0 5.49.09.27.18.45.36.99 2.07 4.59 11.16 25.11 13.41 30.24.27.54.54.99.72 1.44 1.26 2.25 2.97 3.42 4.95 3.42 2.07 0 3.87-1.17 5.13-3.51.27-.54.81-1.8.81-1.8l8.73-19.8s8.91 20.07 9.09 20.52.45.81.81 1.44c1.08 1.89 2.52 3.15 4.77 3.15 2.43 0 3.51-1.26 4.77-3.15.18-.27.45-.81.81-1.53.36-.81 12.69-28.53 12.69-28.53h14.31v27.45c.09 3.24 2.52 5.85 5.67 5.85 3.24 0 5.4-2.52 5.58-5.85v-.9-26.46h15.3c3.69-.27 6.12-2.61 6.12-5.76z" fill="#fff" fill-rule="nonzero"/></g></svg>

<?xml version="1.0" encoding="UTF-8" standalone="no"?>
<!DOCTYPE svg PUBLIC "-//W3C//DTD SVG 1.1//EN" "http://www.w3.org/Graphics/SVG/1.1/DTD/svg11.dtd">
<svg width="100%" height="100%" viewBox="0 0 560 400" version="1.1" xmlns="http://www.w3.org/2000/svg" xmlns:xlink="http://www.w3.org/1999/xlink" xml:space="preserve" xmlns:serif="http://www.serif.com/" style="fill-rule:evenodd;clip-rule:evenodd;stroke-linejoin:round;stroke-miterlimit:1.41421;">
    <g transform="matrix(1.39633,0,0,1.39633,-32.7817,-34.585)">
        <path d="M134.09,202.38C147.5,237.03 198.53,249.81 248.21,230.82C297.89,211.83 327.23,168.36 313.91,133.71C300.5,98.97 249.47,86.19 199.79,105.18C150.2,124.17 120.77,167.64 134.09,202.38Z" style="fill:url(#_Linear1);fill-rule:nonzero;"/>
        <ellipse cx="277.1" cy="183.93" rx="6.21" ry="6.39" style="fill:rgb(251,235,20);"/>
        <path d="M300.14,180.51L299.78,179.88L282.59,149.64L282.05,148.74C280.88,146.85 279.35,145.68 277.19,145.59C275.03,145.68 273.5,146.85 272.33,148.83L271.79,149.73L254.06,180.6C253.34,181.95 252.8,183.03 252.8,184.47C252.8,187.71 255.23,190.14 258.38,190.14C260.45,190.14 262.16,188.88 263.42,186.9L263.87,186.09L277.19,162.33L290.51,186.18L290.87,186.81C292.13,188.88 293.93,190.14 295.91,190.14C298.97,190.14 301.49,187.71 301.49,184.47C301.49,183.03 300.86,181.86 300.14,180.51ZM261.08,151.26C261.08,148.02 258.74,145.86 255.59,145.77C255.59,145.77 255.14,145.68 254.51,145.68L210.77,145.68C208.52,145.68 206.9,146.85 206,148.74L196.19,170.7L186.92,149.91C185.48,146.94 183.77,145.77 181.43,145.77C179.36,145.77 177.56,146.67 176.03,149.82L166.67,170.79L157.85,150.99L157.4,150.18C156.23,147.57 154.79,145.95 152,145.77C149.93,145.68 148.04,146.85 147.05,148.56C146.6,149.46 145.88,151.17 147.05,154.05C147.14,154.32 147.23,154.5 147.41,155.04C149.48,159.63 158.57,180.15 160.82,185.28C161.09,185.82 161.36,186.27 161.54,186.72C162.8,188.97 164.51,190.14 166.49,190.14C168.56,190.14 170.36,188.97 171.62,186.63C171.89,186.09 172.43,184.83 172.43,184.83L181.16,165.03C181.16,165.03 190.07,185.1 190.25,185.55C190.43,186 190.7,186.36 191.06,186.99C192.14,188.88 193.58,190.14 195.83,190.14C198.26,190.14 199.34,188.88 200.6,186.99C200.78,186.72 201.05,186.18 201.41,185.46C201.77,184.65 214.1,156.93 214.1,156.93L228.41,156.93L228.41,184.38C228.5,187.62 230.93,190.23 234.08,190.23C237.32,190.23 239.48,187.71 239.66,184.38L239.66,183.48L239.66,157.02L254.96,157.02C258.65,156.75 261.08,154.41 261.08,151.26Z" style="fill:white;fill-rule:nonzero;"/>
    </g>
    <defs>
        <linearGradient id="_Linear1" x1="0" y1="0" x2="1" y2="0" gradientUnits="userSpaceOnUse" gradientTransform="matrix(186.234,0,0,186.234,130.886,168.002)"><stop offset="0" style="stop-color:rgb(227,5,110);stop-opacity:1"/><stop offset="0.32" style="stop-color:rgb(169,17,118);stop-opacity:1"/><stop offset="0.63" style="stop-color:rgb(118,27,124);stop-opacity:1"/><stop offset="0.87" style="stop-color:rgb(87,34,128);stop-opacity:1"/><stop offset="1" style="stop-color:rgb(75,36,130);stop-opacity:1"/></linearGradient>
    </defs>
</svg>
